images/linear.svg

<svg width="24" height="23" viewBox="0 0 24 23" fill="none" xmlns="http://www.w3.org/2000/svg">
<path d="M2.29183 10.4422H18.5814L11.4647 3.32551C10.896 2.75676 10.896 1.82342 11.4647 1.25467C12.0335 0.685923 12.9522 0.685923 13.521 1.25467L23.1314 10.8651C23.7002 11.4338 23.7002 12.3526 23.1314 12.9213L13.5356 22.5463C12.9668 23.1151 12.0481 23.1151 11.4793 22.5463C10.9106 21.9776 10.9106 21.0588 11.4793 20.4901L18.5814 13.3588H2.29183C1.48975 13.3588 0.833496 12.7026 0.833496 11.9005C0.833496 11.0984 1.48975 10.4422 2.29183 10.4422Z" fill="#8A1A10"/>
</svg>

<svg width="24" height="23" fill="none" xmlns="http://www.w3.org/2000/svg"><path d="M2.292 10.442h16.29l-7.117-7.116a1.47 1.47 0 010-2.071 1.452 1.452 0 012.056 0l9.61 9.61a1.452 1.452 0 010 2.056l-9.595 9.625a1.452 1.452 0 01-2.057 0 1.452 1.452 0 010-2.056l7.102-7.131H2.291A1.463 1.463 0 01.834 11.9c0-.802.657-1.458 1.459-1.458z" fill="#8A1A10"/></svg>
